X: 40247
T: Tired By Kids
R: jig
M: 6/8
K: Eminor
|~e3 dBA|BAG EDE|GFG AGA|Bed BAB|
ede dBA|BAG EDE|~G3 BdB|AFD E3|
~e3 dBA|BAG EDE|GFG AGA|Bed BAG|
~A3 AGA|B2G AGA|BdB ABA|GED E3|
|:EDE GDE|EDE GDE|EDE GFG|ABd edB|
~A3 AGA|B2G AGA|BdB ABA|GED E3:|

